exports/total-taxation-of-gdp_v6_850x600.svg

<svg xmlns="http://www.w3.org/2000/svg" version="1.1" style="background-color:#fff;-webkit-font-smoothing:antialiased" width="850" height="600" font-family="'Helvetica Neue',Helvetica,Arial,sans-serif" font-size="18" text-rendering="optimizeLegibility"><g class="ChartTab"><g class="HeaderView"><g opacity=".8" transform="matrix(.27 0 0 .27 778 15)"><a xmlns:xlink="http://www.w3.org/1999/xlink" xlink:href="https://ourworldindata.org" target="_blank"><g><path fill="#1B2543" d="M0 0h211.2v130.1H0z"/><path fill="#E63912" d="M0 112.2h211.2v17.9H0z"/><g><path fill="none" d="M1.2 12.3h210.2v99.2H1.2z"/><path fill="#FFF" d="M37.8 32.2c0 12.7-7.7 19.4-17.1 19.4-9.7 0-16.6-7.5-16.6-18.7 0-11.7 7.3-19.3 17.1-19.3 10.1.1 16.6 7.7 16.6 18.6zm-28.6.6c0 7.9 4.3 14.9 11.8 14.9 7.5 0 11.8-6.9 11.8-15.3 0-7.3-3.8-14.9-11.8-14.9-7.9 0-11.8 7.3-11.8 15.3zM62.7 43.8c0 2.7.1 5.1.2 7.2h-4.3l-.3-4.3h-.1c-1.3 2.1-4 4.9-8.8 4.9-4.2 0-9.1-2.3-9.1-11.6V24.6h4.8v14.6c0 5 1.5 8.4 5.9 8.4 3.2 0 5.5-2.2 6.3-4.4.3-.7.4-1.6.4-2.5V24.6h4.8v19.2zM67.3 32.8c0-3.1-.1-5.8-.2-8.2h4.2l.2 5.2h.2c1.2-3.5 4.1-5.8 7.3-5.8.5 0 .9.1 1.4.2v4.5c-.5-.1-1-.2-1.6-.2-3.4 0-5.8 2.6-6.5 6.2-.1.7-.2 1.4-.2 2.2V51h-4.8V32.8zM95.4 51L86 14.2h5l4.4 18.6c1.1 4.6 2.1 9.2 2.7 12.7h.1c.6-3.7 1.8-8 3-12.8l4.9-18.5h5l4.5 18.7c1 4.4 2 8.7 2.6 12.6h.1c.8-4 1.8-8.1 3-12.7l4.9-18.5h4.9L120.6 51h-5L111 31.9c-1.1-4.7-1.9-8.3-2.4-12h-.1c-.7 3.7-1.5 7.3-2.8 12L100.4 51h-5zM154.9 37.6c0 9.8-6.8 14-13.2 14-7.2 0-12.7-5.2-12.7-13.6 0-8.8 5.8-14 13.1-14 7.7 0 12.8 5.5 12.8 13.6zm-21 .3c0 5.8 3.3 10.1 8 10.1 4.6 0 8-4.3 8-10.3 0-4.5-2.2-10.1-7.9-10.1s-8.1 5.2-8.1 10.3zM158.2 32.8c0-3.1-.1-5.8-.2-8.2h4.2l.2 5.2h.2c1.2-3.5 4.1-5.8 7.3-5.8.5 0 .9.1 1.4.2v4.5c-.5-.1-1-.2-1.6-.2-3.4 0-5.8 2.6-6.5 6.2-.1.7-.2 1.4-.2 2.2V51h-4.8V32.8zM173.5 12.3h4.8V51h-4.8V12.3zM206.5 12.3v31.9c0 2.3.1 5 .2 6.8h-4.3l-.2-4.6h-.2c-1.5 2.9-4.7 5.2-9 5.2-6.4 0-11.3-5.4-11.3-13.4-.1-8.8 5.4-14.2 11.9-14.2 4 0 6.8 1.9 8 4h.1V12.3h4.8zm-4.8 23.1c0-.6-.1-1.4-.2-2a7 7 0 00-6.9-5.6c-5 0-7.9 4.4-7.9 10.2 0 5.3 2.6 9.8 7.8 9.8 3.2 0 6.2-2.1 7.1-5.7.2-.7.2-1.3.2-2.1v-4.6zM42.8 64c.1 1.6-1.1 2.9-3.1 2.9-1.7 0-2.9-1.3-2.9-2.9 0-1.7 1.3-3 3-3 1.9 0 3 1.3 3 3zm-5.4 33.8V71.4h4.8v26.4h-4.8zM47.5 78.6c0-2.7-.1-5-.2-7.1h4.3l.3 4.4h.1c1.3-2.5 4.4-5 8.8-5 3.7 0 9.4 2.2 9.4 11.2v15.8h-4.8V82.6c0-4.3-1.6-7.8-6.1-7.8-3.2 0-5.6 2.2-6.5 4.9-.2.6-.3 1.4-.3 2.2v15.9h-4.8V78.6zM84 61.6c2.9-.4 6.3-.8 10.1-.8 6.8 0 11.7 1.6 14.9 4.6 3.3 3 5.2 7.3 5.2 13.2 0 6-1.9 10.9-5.3 14.3-3.4 3.4-9.1 5.3-16.3 5.3-3.4 0-6.2-.2-8.6-.4V61.6zm4.8 32.5c1.2.2 3 .3 4.8.3 10.2 0 15.7-5.7 15.7-15.6.1-8.7-4.9-14.2-14.9-14.2-2.5 0-4.3.2-5.6.5v29zM132.1 97.8l-.4-3.3h-.2a9.79 9.79 0 01-8.1 3.9c-5.4 0-8.1-3.8-8.1-7.6 0-6.4 5.7-9.9 15.9-9.8v-.5c0-2.2-.6-6.1-6-6.1-2.5 0-5 .8-6.9 2l-1.1-3.2c2.2-1.4 5.4-2.3 8.7-2.3 8.1 0 10.1 5.5 10.1 10.8v9.9c0 2.3.1 4.5.4 6.3h-4.3zm-.7-13.4c-5.3-.1-11.2.8-11.2 5.9 0 3.1 2.1 4.6 4.5 4.6 3.4 0 5.6-2.2 6.4-4.4.2-.5.3-1 .3-1.5v-4.6zM146.6 63.9v7.6h6.9v3.7h-6.9v14.2c0 3.3.9 5.1 3.6 5.1 1.3 0 2.2-.2 2.8-.3l.2 3.6c-.9.4-2.4.7-4.3.7-2.2 0-4-.7-5.2-2-1.4-1.4-1.9-3.8-1.9-6.9V75.1h-4.1v-3.7h4.1v-6.3l4.8-1.2zM171.4 97.8l-.4-3.3h-.2a9.79 9.79 0 01-8.1 3.9c-5.4 0-8.1-3.8-8.1-7.6 0-6.4 5.7-9.9 15.9-9.8v-.5c0-2.2-.6-6.1-6-6.1-2.5 0-5 .8-6.9 2l-1.1-3.2c2.2-1.4 5.4-2.3 8.7-2.3 8.1 0 10.1 5.5 10.1 10.8v9.9c0 2.3.1 4.5.4 6.3h-4.3zm-.7-13.4c-5.3-.1-11.2.8-11.2 5.9 0 3.1 2.1 4.6 4.5 4.6 3.4 0 5.6-2.2 6.4-4.4.2-.5.3-1 .3-1.5v-4.6z"/></g></g></a></g><a href="https://ourworldindata.org/grapher/total-taxation-of-gdp" target="_blank"><text font-size="25.2" x="15" y="35.2" fill="#555"><tspan x="15" y="35.16">Two sources of data on tax revenue as share of GDP, Colombia</tspan></text></a><text font-size="14.4" x="15" y="53.7" fill="#666"><tspan x="15" y="53.72">Comparison of the OECD&apos;s Global Revenue Statistics Database and the ICTD&apos;s Global Revenue Database. Both</tspan><tspan x="15" y="69.56">series correspond to total taxes collected by the government as percentage of GDP.</tspan></text></g><g class="LineChart"><defs><clipPath id="a"><path d="M42.56 0h830v928.8h-830z"/></clipPath></defs><g class="AxisBoxView"><g class="HorizontalAxis" fill="#666" text-anchor="middle" font-size="16.2"><text x="52.6" y="556.5">1980</text><text x="142.1" y="556.5">1985</text><text x="231.6" y="556.5">1990</text><text x="321.1" y="556.5">1995</text><text x="410.6" y="556.5">2000</text><text x="500.1" y="556.5">2005</text><text x="589.6" y="556.5">2010</text><text x="697" y="556.5">2016</text></g><g class="VerticalAxis" fill="#666" dominant-baseline="middle" text-anchor="end" font-size="16.2"><text x="47.56" y="535.3">0%</text><text x="47.56" y="428.6">5%</text><text x="47.56" y="322">10%</text><text x="47.56" y="215.3">15%</text><text x="47.56" y="108.7">20%</text></g><g class="AxisGridLines"><path stroke="#ccc" d="M52.56 535.3H697"/><path stroke="#ddd" stroke-dasharray="3,2" d="M52.56 428.6H697M52.56 322H697M52.56 215.3H697M52.56 108.7H697"/></g></g><g clip-path="url(#a)"><g class="HeightedLegend clickable"><g class="legendMark"><g class="indicator" stroke="#666" stroke-width=".5"><path d="M702 106.5h22.5M724.5 106.5h0M724.5 106.5h2.5"/></g><text font-size="13.5" x="732" y="110.5" fill="#ca2628"><tspan x="732" y="110.55">Total tax - ICTD</tspan></text></g><g class="legendMark"><g class="indicator" stroke="#666" stroke-width=".5"><path d="M702 113.9h12.5M714.5 113.9v8.1M714.5 122H727"/></g><text font-size="13.5" x="732" y="126" fill="#3360a9"><tspan x="732" y="126.05">Total tax - OECD</tspan></text></g></g><g class="Lines"><g class="key-Colombia_0"><path stroke="#3360a9" stroke-linecap="round" d="M232 309l18-39 17-12 18-10 18-27 18-6 18-13 18-14 18 21 18 3 18 11 18-35 17 1 18-11 18-16 18-12 18-21 18-1 18 6 18 4 18 14 18-18 17-19 18-7 18-7 18-9 18 22" fill="none" stroke-width="1.5"/><g fill="#3360a9"><circle cx="232" cy="309" r="2"/><circle cx="250" cy="270" r="2"/><circle cx="267" cy="258" r="2"/><circle cx="285" cy="248" r="2"/><circle cx="303" cy="221" r="2"/><circle cx="321" cy="215" r="2"/><circle cx="339" cy="202" r="2"/><circle cx="357" cy="188" r="2"/><circle cx="375" cy="209" r="2"/><circle cx="393" cy="212" r="2"/><circle cx="411" cy="223" r="2"/><circle cx="429" cy="188" r="2"/><circle cx="446" cy="189" r="2"/><circle cx="464" cy="178" r="2"/><circle cx="482" cy="162" r="2"/><circle cx="500" cy="150" r="2"/><circle cx="518" cy="129" r="2"/><circle cx="536" cy="128" r="2"/><circle cx="554" cy="134" r="2"/><circle cx="572" cy="138" r="2"/><circle cx="590" cy="152" r="2"/><circle cx="608" cy="134" r="2"/><circle cx="625" cy="115" r="2"/><circle cx="643" cy="108" r="2"/><circle cx="661" cy="101" r="2"/><circle cx="679" cy="92" r="2"/><circle cx="697" cy="114" r="2"/></g></g><g class="key-Colombia_1"><path stroke="#ca2628" stroke-linecap="round" d="M53 299l18 19 17 9 18-7 18 9 18-20 18-6 18 6 18 5 18-5h18l18-19 17-9 18-21 18 5 18-15 18-13 18-16h18l18 14 18-9 18-33 17 3 18-10 18 1 36-62 18-3 18 2 18 19 18-6 18-10 17-19 18 5 18-2 18-4" fill="none" stroke-width="1.5"/><g fill="#ca2628"><circle cx="53" cy="299" r="2"/><circle cx="71" cy="318" r="2"/><circle cx="88" cy="327" r="2"/><circle cx="106" cy="320" r="2"/><circle cx="124" cy="329" r="2"/><circle cx="142" cy="309" r="2"/><circle cx="160" cy="303" r="2"/><circle cx="178" cy="309" r="2"/><circle cx="196" cy="314" r="2"/><circle cx="214" cy="309" r="2"/><circle cx="232" cy="309" r="2"/><circle cx="250" cy="290" r="2"/><circle cx="267" cy="281" r="2"/><circle cx="285" cy="260" r="2"/><circle cx="303" cy="265" r="2"/><circle cx="321" cy="250" r="2"/><circle cx="339" cy="237" r="2"/><circle cx="357" cy="221" r="2"/><circle cx="375" cy="221" r="2"/><circle cx="393" cy="235" r="2"/><circle cx="411" cy="226" r="2"/><circle cx="429" cy="193" r="2"/><circle cx="446" cy="196" r="2"/><circle cx="464" cy="186" r="2"/><circle cx="482" cy="187" r="2"/><circle cx="518" cy="125" r="2"/><circle cx="536" cy="122" r="2"/><circle cx="554" cy="124" r="2"/><circle cx="572" cy="143" r="2"/><circle cx="590" cy="137" r="2"/><circle cx="608" cy="127" r="2"/><circle cx="625" cy="108" r="2"/><circle cx="643" cy="113" r="2"/><circle cx="661" cy="111" r="2"/><circle cx="679" cy="107" r="2"/></g></g></g></g></g><g class="SourcesFooter" fill="#777"><g class="clickable" fill="#777"><text font-size="12.6" x="15" y="581.6"><tspan x="15" y="581.58">Source: OECD (2018), ICTD - Government Revenue Dataset, November 2017</tspan></text></g><text font-size="12.6" x="775.4" y="581.6"><tspan x="775.4" y="581.58"><a class="cclogo" href="http://creativecommons.org/licenses/by-sa/4.0/deed.en_US" target="_blank" fill="#777">CC BY-SA</a></tspan></text></g></g></svg>

<svg xmlns="http://www.w3.org/2000/svg" version="1.1" style="font-family: 'Helvetica Neue', Helvetica, Arial, sans-serif; font-size: 18px; background-color: white; text-rendering: optimizeLegibility; -webkit-font-smoothing: antialiased;" width="850" height="600"><g class="ChartTab"><g class="HeaderView"><g opacity="0.8" transform="translate(778, 15) scale(0.27)"><a xmlns:xlink="http://www.w3.org/1999/xlink" xlink:href="https://ourworldindata.org" target="_blank"><g><rect x="0" y="0" fill="#1B2543" width="211.2" height="130.1"/><rect x="0" y="112.2" fill="#E63912" width="211.2" height="17.9"/><g><rect x="1.2" y="12.3" fill="none" width="210.2" height="99.2"/><path fill="#FFFFFF" d="M37.8,32.2c0,12.7-7.7,19.4-17.1,19.4c-9.7,0-16.6-7.5-16.6-18.7c0-11.7,7.3-19.3,17.1-19.3 C31.3,13.7,37.8,21.3,37.8,32.2z M9.2,32.8c0,7.9,4.3,14.9,11.8,14.9c7.5,0,11.8-6.9,11.8-15.3c0-7.3-3.8-14.9-11.8-14.9 C13.1,17.5,9.2,24.8,9.2,32.8z"/><path fill="#FFFFFF" d="M62.7,43.8c0,2.7,0.1,5.1,0.2,7.2h-4.3l-0.3-4.3h-0.1c-1.3,2.1-4,4.9-8.8,4.9c-4.2,0-9.1-2.3-9.1-11.6 V24.6h4.8v14.6c0,5,1.5,8.4,5.9,8.4c3.2,0,5.5-2.2,6.3-4.4c0.3-0.7,0.4-1.6,0.4-2.5V24.6h4.8V43.8z"/><path fill="#FFFFFF" d="M67.3,32.8c0-3.1-0.1-5.8-0.2-8.2h4.2l0.2,5.2h0.2c1.2-3.5,4.1-5.8,7.3-5.8c0.5,0,0.9,0.1,1.4,0.2v4.5 c-0.5-0.1-1-0.2-1.6-0.2c-3.4,0-5.8,2.6-6.5,6.2c-0.1,0.7-0.2,1.4-0.2,2.2V51h-4.8V32.8z"/><path fill="#FFFFFF" d="M95.4,51l-9.4-36.8h5l4.4,18.6c1.1,4.6,2.1,9.2,2.7,12.7h0.1c0.6-3.7,1.8-8,3-12.8l4.9-18.5h5l4.5,18.7 c1,4.4,2,8.7,2.6,12.6h0.1c0.8-4,1.8-8.1,3-12.7l4.9-18.5h4.9L120.6,51h-5L111,31.9c-1.1-4.7-1.9-8.3-2.4-12h-0.1 c-0.7,3.7-1.5,7.3-2.8,12L100.4,51H95.4z"/><path fill="#FFFFFF" d="M154.9,37.6c0,9.8-6.8,14-13.2,14c-7.2,0-12.7-5.2-12.7-13.6c0-8.8,5.8-14,13.1-14 C149.8,24,154.9,29.5,154.9,37.6z M133.9,37.9c0,5.8,3.3,10.1,8,10.1c4.6,0,8-4.3,8-10.3c0-4.5-2.2-10.1-7.9-10.1 C136.3,27.6,133.9,32.8,133.9,37.9z"/><path fill="#FFFFFF" d="M158.2,32.8c0-3.1-0.1-5.8-0.2-8.2h4.2l0.2,5.2h0.2c1.2-3.5,4.1-5.8,7.3-5.8c0.5,0,0.9,0.1,1.4,0.2v4.5 c-0.5-0.1-1-0.2-1.6-0.2c-3.4,0-5.8,2.6-6.5,6.2c-0.1,0.7-0.2,1.4-0.2,2.2V51h-4.8V32.8z"/><path fill="#FFFFFF" d="M173.5,12.3h4.8V51h-4.8V12.3z"/><path fill="#FFFFFF" d="M206.5,12.3v31.9c0,2.3,0.1,5,0.2,6.8h-4.3l-0.2-4.6H202c-1.5,2.9-4.7,5.2-9,5.2 c-6.4,0-11.3-5.4-11.3-13.4c-0.1-8.8,5.4-14.2,11.9-14.2c4,0,6.8,1.9,8,4h0.1V12.3H206.5z M201.7,35.4c0-0.6-0.1-1.4-0.2-2 c-0.7-3.1-3.3-5.6-6.9-5.6c-5,0-7.9,4.4-7.9,10.2c0,5.3,2.6,9.8,7.8,9.8c3.2,0,6.2-2.1,7.1-5.7c0.2-0.7,0.2-1.3,0.2-2.1V35.4z"/><path fill="#FFFFFF" d="M42.8,64c0.1,1.6-1.1,2.9-3.1,2.9c-1.7,0-2.9-1.3-2.9-2.9c0-1.7,1.3-3,3-3C41.7,61,42.8,62.3,42.8,64z M37.4,97.8V71.4h4.8v26.4H37.4z"/><path fill="#FFFFFF" d="M47.5,78.6c0-2.7-0.1-5-0.2-7.1h4.3l0.3,4.4h0.1c1.3-2.5,4.4-5,8.8-5c3.7,0,9.4,2.2,9.4,11.2v15.8h-4.8 V82.6c0-4.3-1.6-7.8-6.1-7.8c-3.2,0-5.6,2.2-6.5,4.9c-0.2,0.6-0.3,1.4-0.3,2.2v15.9h-4.8V78.6z"/><path fill="#FFFFFF" d="M84,61.6c2.9-0.4,6.3-0.8,10.1-0.8c6.8,0,11.7,1.6,14.9,4.6c3.3,3,5.2,7.3,5.2,13.2c0,6-1.9,10.9-5.3,14.3 c-3.4,3.4-9.1,5.3-16.3,5.3c-3.4,0-6.2-0.2-8.6-0.4V61.6z M88.8,94.1c1.2,0.2,3,0.3,4.8,0.3c10.2,0,15.7-5.7,15.7-15.6 c0.1-8.7-4.9-14.2-14.9-14.2c-2.5,0-4.3,0.2-5.6,0.5V94.1z"/><path fill="#FFFFFF" d="M132.1,97.8l-0.4-3.3h-0.2c-1.5,2.1-4.3,3.9-8.1,3.9c-5.4,0-8.1-3.8-8.1-7.6c0-6.4,5.7-9.9,15.9-9.8v-0.5 c0-2.2-0.6-6.1-6-6.1c-2.5,0-5,0.8-6.9,2l-1.1-3.2c2.2-1.4,5.4-2.3,8.7-2.3c8.1,0,10.1,5.5,10.1,10.8v9.9c0,2.3,0.1,4.5,0.4,6.3 H132.1z M131.4,84.4c-5.3-0.1-11.2,0.8-11.2,5.9c0,3.1,2.1,4.6,4.5,4.6c3.4,0,5.6-2.2,6.4-4.4c0.2-0.5,0.3-1,0.3-1.5V84.4z"/><path fill="#FFFFFF" d="M146.6,63.9v7.6h6.9v3.7h-6.9v14.2c0,3.3,0.9,5.1,3.6,5.1c1.3,0,2.2-0.2,2.8-0.3l0.2,3.6 c-0.9,0.4-2.4,0.7-4.3,0.7c-2.2,0-4-0.7-5.2-2c-1.4-1.4-1.9-3.8-1.9-6.9V75.1h-4.1v-3.7h4.1v-6.3L146.6,63.9z"/><path fill="#FFFFFF" d="M171.4,97.8l-0.4-3.3h-0.2c-1.5,2.1-4.3,3.9-8.1,3.9c-5.4,0-8.1-3.8-8.1-7.6c0-6.4,5.7-9.9,15.9-9.8v-0.5 c0-2.2-0.6-6.1-6-6.1c-2.5,0-5,0.8-6.9,2l-1.1-3.2c2.2-1.4,5.4-2.3,8.7-2.3c8.1,0,10.1,5.5,10.1,10.8v9.9c0,2.3,0.1,4.5,0.4,6.3 H171.4z M170.7,84.4c-5.3-0.1-11.2,0.8-11.2,5.9c0,3.1,2.1,4.6,4.5,4.6c3.4,0,5.6-2.2,6.4-4.4c0.2-0.5,0.3-1,0.3-1.5V84.4z"/></g></g></a></g><a href="https://ourworldindata.org/grapher/total-taxation-of-gdp" target="_blank"><text font-size="25.20" x="15.0" y="35.2" fill="#555"><tspan x="15" y="35.160000000000004">Two sources of data on tax revenue as share of GDP, Colombia</tspan></text></a><text font-size="14.40" x="15.0" y="53.7" fill="#666"><tspan x="15" y="53.72">Comparison of the OECD's Global Revenue Statistics Database and the ICTD's  Global Revenue Database. Both</tspan><tspan x="15" y="69.56">series correspond to total taxes collected by the government as percentage of GDP.</tspan></text></g><g class="LineChart"><defs><clipPath id="boundsClip-135"><rect x="42.562" y="0" width="830" height="928.8"></rect></clipPath></defs><g class="AxisBoxView"><g class="HorizontalAxis"><text x="52.6" y="556.5" fill="#666" text-anchor="middle" font-size="16.2">1980</text><text x="142.1" y="556.5" fill="#666" text-anchor="middle" font-size="16.2">1985</text><text x="231.6" y="556.5" fill="#666" text-anchor="middle" font-size="16.2">1990</text><text x="321.1" y="556.5" fill="#666" text-anchor="middle" font-size="16.2">1995</text><text x="410.6" y="556.5" fill="#666" text-anchor="middle" font-size="16.2">2000</text><text x="500.1" y="556.5" fill="#666" text-anchor="middle" font-size="16.2">2005</text><text x="589.6" y="556.5" fill="#666" text-anchor="middle" font-size="16.2">2010</text><text x="697" y="556.5" fill="#666" text-anchor="middle" font-size="16.2">2016</text></g><g class="VerticalAxis"><text x="47.56" y="535.3" fill="#666" dominant-baseline="middle" text-anchor="end" font-size="16.2">0%</text><text x="47.56" y="428.6" fill="#666" dominant-baseline="middle" text-anchor="end" font-size="16.2">5%</text><text x="47.56" y="322" fill="#666" dominant-baseline="middle" text-anchor="end" font-size="16.2">10%</text><text x="47.56" y="215.3" fill="#666" dominant-baseline="middle" text-anchor="end" font-size="16.2">15%</text><text x="47.56" y="108.7" fill="#666" dominant-baseline="middle" text-anchor="end" font-size="16.2">20%</text></g><g class="AxisGridLines"><line x1="52.56" y1="535.3" x2="697.00" y2="535.3" stroke="#ccc"></line><line x1="52.56" y1="428.6" x2="697.00" y2="428.6" stroke="#ddd" stroke-dasharray="3,2"></line><line x1="52.56" y1="322" x2="697.00" y2="322" stroke="#ddd" stroke-dasharray="3,2"></line><line x1="52.56" y1="215.3" x2="697.00" y2="215.3" stroke="#ddd" stroke-dasharray="3,2"></line><line x1="52.56" y1="108.7" x2="697.00" y2="108.7" stroke="#ddd" stroke-dasharray="3,2"></line></g></g><g clip-path="url(#boundsClip-135)"><g class="HeightedLegend clickable"><g class="legendMark"><g class="indicator"><line x1="701.995" y1="106.5" x2="724.495" y2="106.5" stroke="#666" stroke-width="0.5"></line><line x1="724.495" y1="106.5" x2="724.495" y2="106.5" stroke="#666" stroke-width="0.5"></line><line x1="724.495" y1="106.5" x2="726.995" y2="106.5" stroke="#666" stroke-width="0.5"></line></g><rect x="696.995" y="99.75" width="130.445" height="13.5" fill="#fff" opacity="0"></rect><text font-size="13.50" x="732.0" y="110.5" fill="#ca2628"><tspan x="731.995" y="110.55">Total tax - ICTD</tspan></text></g><g class="legendMark"><g class="indicator"><line x1="701.995" y1="113.9" x2="714.495" y2="113.9" stroke="#666" stroke-width="0.5"></line><line x1="714.495" y1="113.9" x2="714.495" y2="122" stroke="#666" stroke-width="0.5"></line><line x1="714.495" y1="122" x2="726.995" y2="122" stroke="#666" stroke-width="0.5"></line></g><rect x="696.995" y="115.25" width="138.005" height="13.5" fill="#fff" opacity="0"></rect><text font-size="13.50" x="732.0" y="126.0" fill="#3360a9"><tspan x="731.995" y="126.05">Total tax - OECD</tspan></text></g></g><g class="Lines"><rect x="53" y="92" width="644" height="443" fill="rgba(255,255,255,0)" opacity="0"></rect><g class="key-Colombia_0"><path stroke="#3360a9" stroke-linecap="round" d="M232 309L250 270L267 258L285 248L303 221L321 215L339 202L357 188L375 209L393 212L411 223L429 188L446 189L464 178L482 162L500 150L518 129L536 128L554 134L572 138L590 152L608 134L625 115L643 108L661 101L679 92L697 114" fill="none" stroke-width="1.5"></path><g fill="#3360a9"><circle cx="232" cy="309" r="2"></circle><circle cx="250" cy="270" r="2"></circle><circle cx="267" cy="258" r="2"></circle><circle cx="285" cy="248" r="2"></circle><circle cx="303" cy="221" r="2"></circle><circle cx="321" cy="215" r="2"></circle><circle cx="339" cy="202" r="2"></circle><circle cx="357" cy="188" r="2"></circle><circle cx="375" cy="209" r="2"></circle><circle cx="393" cy="212" r="2"></circle><circle cx="411" cy="223" r="2"></circle><circle cx="429" cy="188" r="2"></circle><circle cx="446" cy="189" r="2"></circle><circle cx="464" cy="178" r="2"></circle><circle cx="482" cy="162" r="2"></circle><circle cx="500" cy="150" r="2"></circle><circle cx="518" cy="129" r="2"></circle><circle cx="536" cy="128" r="2"></circle><circle cx="554" cy="134" r="2"></circle><circle cx="572" cy="138" r="2"></circle><circle cx="590" cy="152" r="2"></circle><circle cx="608" cy="134" r="2"></circle><circle cx="625" cy="115" r="2"></circle><circle cx="643" cy="108" r="2"></circle><circle cx="661" cy="101" r="2"></circle><circle cx="679" cy="92" r="2"></circle><circle cx="697" cy="114" r="2"></circle></g></g><g class="key-Colombia_1"><path stroke="#ca2628" stroke-linecap="round" d="M53 299L71 318L88 327L106 320L124 329L142 309L160 303L178 309L196 314L214 309L232 309L250 290L267 281L285 260L303 265L321 250L339 237L357 221L375 221L393 235L411 226L429 193L446 196L464 186L482 187L518 125L536 122L554 124L572 143L590 137L608 127L625 108L643 113L661 111L679 107" fill="none" stroke-width="1.5"></path><g fill="#ca2628"><circle cx="53" cy="299" r="2"></circle><circle cx="71" cy="318" r="2"></circle><circle cx="88" cy="327" r="2"></circle><circle cx="106" cy="320" r="2"></circle><circle cx="124" cy="329" r="2"></circle><circle cx="142" cy="309" r="2"></circle><circle cx="160" cy="303" r="2"></circle><circle cx="178" cy="309" r="2"></circle><circle cx="196" cy="314" r="2"></circle><circle cx="214" cy="309" r="2"></circle><circle cx="232" cy="309" r="2"></circle><circle cx="250" cy="290" r="2"></circle><circle cx="267" cy="281" r="2"></circle><circle cx="285" cy="260" r="2"></circle><circle cx="303" cy="265" r="2"></circle><circle cx="321" cy="250" r="2"></circle><circle cx="339" cy="237" r="2"></circle><circle cx="357" cy="221" r="2"></circle><circle cx="375" cy="221" r="2"></circle><circle cx="393" cy="235" r="2"></circle><circle cx="411" cy="226" r="2"></circle><circle cx="429" cy="193" r="2"></circle><circle cx="446" cy="196" r="2"></circle><circle cx="464" cy="186" r="2"></circle><circle cx="482" cy="187" r="2"></circle><circle cx="518" cy="125" r="2"></circle><circle cx="536" cy="122" r="2"></circle><circle cx="554" cy="124" r="2"></circle><circle cx="572" cy="143" r="2"></circle><circle cx="590" cy="137" r="2"></circle><circle cx="608" cy="127" r="2"></circle><circle cx="625" cy="108" r="2"></circle><circle cx="643" cy="113" r="2"></circle><circle cx="661" cy="111" r="2"></circle><circle cx="679" cy="107" r="2"></circle></g></g></g></g></g><g style="fill: #777;" class="SourcesFooter"><g style="fill: #777;" class="clickable"><text font-size="12.60" x="15.0" y="581.6"><tspan x="15" y="581.58">Source: OECD (2018), ICTD - Government Revenue Dataset, November 2017</tspan></text></g><text font-size="12.60" x="775.4" y="581.6"><tspan x="775.402" y="581.58"><a style="fill: #777;" class="cclogo" href="http://creativecommons.org/licenses/by-sa/4.0/deed.en_US" target="_blank">CC BY-SA</a></tspan></text></g></g></svg>
